assets/playbooks/suitcase.svg

<svg xmlns="http://www.w3.org/2000/svg" viewBox="0 0 512 512"><!--! Font Awesome Pro 6.4.2 by @fontawesome - https://fontawesome.com License - https://fontawesome.com/license (Commercial License) Copyright 2023 Fonticons, Inc. --><path d="M176 56V96H336V56c0-4.4-3.6-8-8-8H184c-4.4 0-8 3.6-8 8zM128 96V56c0-30.9 25.1-56 56-56H328c30.9 0 56 25.1 56 56V96v32V480H128V128 96zM64 96H96V480H64c-35.3 0-64-28.7-64-64V160c0-35.3 28.7-64 64-64zM448 480H416V96h32c35.3 0 64 28.7 64 64V416c0 35.3-28.7 64-64 64z"/></svg>

<?xml version="1.0" encoding="UTF-8" standalone="no"?>
<!DOCTYPE svg PUBLIC "-//W3C//DTD SVG 1.1//EN" "http://www.w3.org/Graphics/SVG/1.1/DTD/svg11.dtd">
<svg width="100%" height="100%" viewBox="0 0 512 512" version="1.1" xmlns="http://www.w3.org/2000/svg" xmlns:xlink="http://www.w3.org/1999/xlink" xml:space="preserve" xmlns:serif="http://www.serif.com/" style="fill-rule:evenodd;clip-rule:evenodd;stroke-linejoin:round;stroke-miterlimit:2;">
    <path d="M176,56L176,96L336,96L336,56C336,51.6 332.4,48 328,48L184,48C179.6,48 176,51.6 176,56ZM128,480L128,56C128,25.1 153.1,0 184,0L328,0C358.9,0 384,25.1 384,56L384,480L128,480ZM64,96L96,96L96,480L64,480C28.7,480 0,451.3 0,416L0,160C0,124.7 28.7,96 64,96ZM448,480L416,480L416,96L448,96C483.3,96 512,124.7 512,160L512,416C512,451.3 483.3,480 448,480Z" style="fill:rgb(122,121,113);fill-rule:nonzero;"/>
</svg>
